X: 1
T: Dohm's Express
P: piffero primo a0536
O: cfd bk 2
%R: march
F: http://ancients.sudburymuster.org/mus/sng/pdf/dohmsC0.pdf
Z: 2020 John Chambers <jc:trillian.mit.edu>
M: 2/4
L: 1/16
K: D
c2 |:\
d2f2 B3c | d2f2 B3d | c2e2 A2cd | e2c2 A3c |\
d2f2 B3c | d2f2 B3d | c2e2 c2A2 |1 B4 B3c :|2 B4 B2 ||
|: z2 |\
b4 Bdf^a | b2b2 f3^g | a2e2 ABcd | e2c2 A4 |\
b4 Bdf^a | b2b2 f3e | d2e2 fedc | B4 B2 :|
